src/assets/openshipai.svg

<svg width="180" height="80" viewBox="0 0 265 115" fill="none" xmlns="http://www.w3.org/2000/svg">
<path d="M69.636 69.2755C67.2765 69.2755 65.1304 68.725 63.1978 67.6239C61.2877 66.5003 59.7821 64.9722 58.681 63.0396C57.5799 61.107 57.0293 58.9834 57.0293 56.6688C57.0293 54.3542 57.5799 52.2306 58.681 50.298C59.7821 48.3654 61.2877 46.8486 63.1978 45.7475C65.1304 44.6239 67.2765 44.0621 69.636 44.0621C71.9956 44.0621 74.1304 44.6239 76.0405 45.7475C77.9731 46.8486 79.49 48.3654 80.5911 50.298C81.6922 52.2306 82.2428 54.3542 82.2428 56.6688C82.2428 58.9834 81.6922 61.107 80.5911 63.0396C79.49 64.9722 77.9731 66.5003 76.0405 67.6239C74.1304 68.725 71.9956 69.2755 69.636 69.2755ZM69.636 64.9609C71.1192 64.9609 72.4787 64.6126 73.7147 63.916C74.9506 63.2194 75.9169 62.2418 76.6136 60.9834C77.3327 59.725 77.6922 58.2868 77.6922 56.6688C77.6922 55.0508 77.3327 53.6126 76.6136 52.3542C75.9169 51.0958 74.9506 50.1182 73.7147 49.4216C72.4787 48.725 71.1192 48.3767 69.636 48.3767C68.1529 48.3767 66.7933 48.725 65.5574 49.4216C64.3439 50.1182 63.3776 51.0958 62.6585 52.3542C61.9619 53.6126 61.6136 55.0508 61.6136 56.6688C61.6136 58.2868 61.9619 59.725 62.6585 60.9834C63.3776 62.2418 64.3439 63.2194 65.5574 63.916C66.7933 64.6126 68.1529 64.9609 69.636 64.9609ZM85.8105 51.5452H89.9566V53.6351H90.2263C90.6982 52.8935 91.3836 52.2755 92.2825 51.7812C93.1813 51.2643 94.215 51.0059 95.3836 51.0059C96.9341 51.0059 98.3386 51.3991 99.5971 52.1857C100.878 52.9497 101.878 54.0284 102.597 55.4216C103.316 56.8149 103.676 58.3879 103.676 60.1407C103.676 61.916 103.316 63.5003 102.597 64.8935C101.878 66.2643 100.878 67.343 99.5971 68.1295C98.3386 68.8935 96.9341 69.2755 95.3836 69.2755C94.215 69.2755 93.1701 69.0284 92.2488 68.534C91.3499 68.0396 90.6757 67.4216 90.2263 66.68H89.9566L90.2263 69.107V76.017H85.8105V51.5452ZM94.6083 65.1969C95.4398 65.1969 96.215 64.9834 96.9341 64.5564C97.6532 64.1295 98.2263 63.534 98.6532 62.7699C99.0802 62.0059 99.2937 61.1295 99.2937 60.1407C99.2937 59.1519 99.0802 58.2755 98.6532 57.5115C98.2263 56.7475 97.6532 56.1632 96.9341 55.7587C96.215 55.3317 95.4398 55.1182 94.6083 55.1182C93.7993 55.1182 93.0353 55.3317 92.3162 55.7587C91.5971 56.1632 91.024 56.7475 90.5971 57.5115C90.1701 58.2755 89.9566 59.1519 89.9566 60.1407C89.9566 61.1295 90.1701 62.0059 90.5971 62.7699C91.024 63.534 91.5971 64.1295 92.3162 64.5564C93.0353 64.9834 93.7993 65.1969 94.6083 65.1969ZM115.135 69.2755C113.427 69.2755 111.888 68.8823 110.517 68.0958C109.146 67.3092 108.068 66.2306 107.281 64.8598C106.517 63.4666 106.135 61.9048 106.135 60.1744C106.135 58.534 106.517 57.0171 107.281 55.6239C108.045 54.2081 109.101 53.0845 110.45 52.2531C111.798 51.4216 113.304 51.0059 114.966 51.0059C116.742 51.0059 118.27 51.3879 119.551 52.1519C120.832 52.916 121.798 53.9609 122.45 55.2868C123.124 56.6126 123.461 58.0845 123.461 59.7025C123.461 60.2194 123.427 60.7137 123.36 61.1857H110.45C110.674 62.5564 111.214 63.6014 112.068 64.3205C112.944 65.0171 113.989 65.3654 115.202 65.3654C116.214 65.3654 117.079 65.1519 117.798 64.725C118.539 64.2755 119.124 63.68 119.551 62.9385L123.124 64.6913C121.371 67.7475 118.708 69.2755 115.135 69.2755ZM119.214 58.0508C119.169 57.5115 118.966 56.9834 118.607 56.4666C118.27 55.9272 117.787 55.489 117.157 55.1519C116.551 54.7924 115.832 54.6126 115 54.6126C113.944 54.6126 113.034 54.9272 112.27 55.5564C111.528 56.1632 110.989 56.9946 110.652 58.0508H119.214ZM126.862 51.5452H131.008V53.7025H131.278C131.795 52.871 132.525 52.2194 133.469 51.7475C134.413 51.2531 135.435 51.0059 136.536 51.0059C138.604 51.0059 140.177 51.6351 141.255 52.8935C142.334 54.1519 142.873 55.871 142.873 58.0508V68.7362H138.458V58.5902C138.458 57.489 138.177 56.6351 137.615 56.0284C137.053 55.4216 136.267 55.1182 135.255 55.1182C134.064 55.1182 133.098 55.5789 132.357 56.5003C131.637 57.4216 131.278 58.5789 131.278 59.9722V68.7362H126.862V51.5452ZM154.929 69.2755C152.816 69.2755 150.951 68.68 149.333 67.489C147.715 66.298 146.58 64.6126 145.929 62.4328L150.209 60.7475C150.547 62.0284 151.12 63.0508 151.929 63.8149C152.738 64.5789 153.749 64.9609 154.962 64.9609C155.973 64.9609 156.839 64.7137 157.558 64.2194C158.277 63.7025 158.636 62.9946 158.636 62.0958C158.636 61.1969 158.288 60.4666 157.591 59.9048C156.917 59.3205 155.704 58.7025 153.951 58.0508L152.468 57.5115C150.917 56.9722 149.591 56.1519 148.49 55.0508C147.389 53.9272 146.839 52.5227 146.839 50.8373C146.839 49.5789 147.164 48.4328 147.816 47.3991C148.468 46.3654 149.389 45.5564 150.58 44.9722C151.771 44.3654 153.12 44.0621 154.625 44.0621C156.805 44.0621 158.524 44.5789 159.782 45.6126C161.041 46.6239 161.906 47.8149 162.378 49.1857L158.367 50.871C158.12 50.1295 157.681 49.5115 157.052 49.0171C156.445 48.5003 155.659 48.2418 154.693 48.2418C153.704 48.2418 152.884 48.4778 152.232 48.9497C151.603 49.3991 151.288 49.9946 151.288 50.7362C151.288 51.4553 151.591 52.0733 152.198 52.5902C152.805 53.0845 153.805 53.5677 155.198 54.0396L156.715 54.5452C158.805 55.2643 160.4 56.2194 161.502 57.4104C162.625 58.5789 163.187 60.1182 163.187 62.0284C163.187 63.6014 162.782 64.9385 161.973 66.0396C161.164 67.1182 160.12 67.9272 158.839 68.4666C157.58 69.0059 156.277 69.2755 154.929 69.2755ZM166.89 44.6014H171.306V50.7025L171.036 53.7025H171.306C171.8 52.8935 172.519 52.2418 173.463 51.7475C174.407 51.2531 175.43 51.0059 176.531 51.0059C178.621 51.0059 180.216 51.6351 181.317 52.8935C182.441 54.1295 183.003 55.8486 183.003 58.0508V68.7362H178.587V58.5902C178.587 57.489 178.284 56.6351 177.677 56.0284C177.092 55.4216 176.306 55.1182 175.317 55.1182C174.149 55.1182 173.182 55.5901 172.418 56.534C171.677 57.4778 171.306 58.6351 171.306 60.0059V68.7362H166.89V44.6014ZM189.662 49.6576C188.876 49.6576 188.201 49.3767 187.64 48.8149C187.078 48.2531 186.797 47.5789 186.797 46.7924C186.797 46.0059 187.078 45.343 187.64 44.8036C188.201 44.2418 188.876 43.9609 189.662 43.9609C190.449 43.9609 191.111 44.2418 191.651 44.8036C192.213 45.343 192.493 46.0059 192.493 46.7924C192.493 47.5789 192.213 48.2531 191.651 48.8149C191.111 49.3767 190.449 49.6576 189.662 49.6576ZM187.437 51.5452H191.853V68.7362H187.437V51.5452ZM196.349 51.5452H200.495V53.6351H200.765C201.236 52.8935 201.922 52.2755 202.821 51.7812C203.72 51.2643 204.753 51.0059 205.922 51.0059C207.472 51.0059 208.877 51.3991 210.135 52.1857C211.416 52.9497 212.416 54.0284 213.135 55.4216C213.854 56.8149 214.214 58.3879 214.214 60.1407C214.214 61.916 213.854 63.5003 213.135 64.8935C212.416 66.2643 211.416 67.343 210.135 68.1295C208.877 68.8935 207.472 69.2755 205.922 69.2755C204.753 69.2755 203.708 69.0284 202.787 68.534C201.888 68.0396 201.214 67.4216 200.765 66.68H200.495L200.765 69.107V76.017H196.349V51.5452ZM205.147 65.1969C205.978 65.1969 206.753 64.9834 207.472 64.5564C208.192 64.1295 208.765 63.534 209.192 62.7699C209.618 62.0059 209.832 61.1295 209.832 60.1407C209.832 59.1519 209.618 58.2755 209.192 57.5115C208.765 56.7475 208.192 56.1632 207.472 55.7587C206.753 55.3317 205.978 55.1182 205.147 55.1182C204.338 55.1182 203.574 55.3317 202.854 55.7587C202.135 56.1632 201.562 56.7475 201.135 57.5115C200.708 58.2755 200.495 59.1519 200.495 60.1407C200.495 61.1295 200.708 62.0059 201.135 62.7699C201.562 63.534 202.135 64.1295 202.854 64.5564C203.574 64.9834 204.338 65.1969 205.147 65.1969ZM224.999 44.6014H230.223L239.291 68.7362H234.268L232.246 62.9722H223.01L220.988 68.7362H215.965L224.999 44.6014ZM230.763 58.7924L228.639 52.725L227.763 49.8261H227.493L226.617 52.725L224.459 58.7924H230.763ZM242.55 44.6014H247.1V68.7362H242.55V44.6014Z" fill="url(#paint0_linear_546_2292)"/>
<path d="M37.0181 47.7559C39.1505 51.4487 40.0356 55.7303 39.5434 59.9659C39.0511 64.2016 37.207 68.1659 34.2846 71.271C31.3624 74.3763 27.5172 76.4574 23.3192 77.2056C19.1213 77.9542 14.7939 77.3299 10.9785 75.4258L12.6227 72.1316C15.7299 73.6821 19.2542 74.1905 22.6731 73.581C26.0919 72.9714 29.2235 71.2766 31.6035 68.7478C33.9834 66.2189 35.4854 62.9903 35.8861 59.5408C36.2874 56.0913 35.5662 52.6042 33.8297 49.5968L37.0181 47.7559Z" fill="url(#paint1_linear_546_2292)"/>
<path d="M2.65788 67.5937C0.474712 63.8124 -0.399958 59.4163 0.169439 55.0874C0.738838 50.7583 2.72052 46.7381 5.80723 43.6499C8.89396 40.5617 12.9133 38.5781 17.2419 38.0066C21.5709 37.4351 25.9672 38.3077 29.7495 40.4891L27.91 43.6785C24.8298 41.902 21.2493 41.1914 17.7239 41.6568C14.1985 42.1222 10.9251 43.7377 8.41131 46.2527C5.89744 48.7678 4.28357 52.0419 3.81984 55.5674C3.35611 59.0931 4.06843 62.6733 5.84642 65.7527L2.65788 67.5937Z" fill="url(#paint2_linear_546_2292)"/>
<path d="M32.558 45.037C32.6202 44.2825 33.417 43.8226 34.1015 44.1459L38.8642 46.3957C39.6553 46.7693 39.7006 47.8774 38.9432 48.3148L33.7474 51.3146C32.99 51.7519 32.0532 51.1583 32.125 50.2866L32.558 45.037Z" fill="url(#paint3_linear_546_2292)"/>
<path d="M7.90779 70.6359C7.84558 71.3902 7.04884 71.8502 6.36436 71.5271L1.60154 69.2771C0.810687 68.9035 0.765048 67.7954 1.52253 67.3581L6.71833 64.3582C7.47581 63.9209 8.41267 64.5146 8.34076 65.3861L7.90779 70.6359Z" fill="url(#paint4_linear_546_2292)"/>
<defs>
<linearGradient id="paint0_linear_546_2292" x1="286.443" y1="62.7284" x2="137.668" y2="-160.427" gradientUnits="userSpaceOnUse">
<stop stop-color="#0BA360"/>
<stop offset="1" stop-color="#0E7254"/>
</linearGradient>
<linearGradient id="paint1_linear_546_2292" x1="45.6162" y1="65.1778" x2="-23.2833" y2="48.3692" gradientUnits="userSpaceOnUse">
<stop stop-color="#0BA360"/>
<stop offset="1" stop-color="#0E7254"/>
</linearGradient>
<linearGradient id="paint2_linear_546_2292" x1="35.9074" y1="55.2578" x2="-35.2194" y2="37.2698" gradientUnits="userSpaceOnUse">
<stop stop-color="#0BA360"/>
<stop offset="1" stop-color="#0E7254"/>
</linearGradient>
<linearGradient id="paint3_linear_546_2292" x1="41.0096" y1="48.3856" x2="23.3873" y2="43.9617" gradientUnits="userSpaceOnUse">
<stop stop-color="#0BA360"/>
<stop offset="1" stop-color="#0E7254"/>
</linearGradient>
<linearGradient id="paint4_linear_546_2292" x1="9.86899" y1="68.5556" x2="-7.7533" y2="64.1317" gradientUnits="userSpaceOnUse">
<stop stop-color="#0BA360"/>
<stop offset="1" stop-color="#0E7254"/>
</linearGradient>
</defs>
</svg>

<svg width="180" height="80" viewBox="0 0 265 115" fill="none" xmlns="http://www.w3.org/2000/svg"><path d="M69.636 69.275c-2.36 0-4.506-.55-6.438-1.651a12.282 12.282 0 01-4.517-4.584c-1.101-1.933-1.652-4.057-1.652-6.371 0-2.315.55-4.438 1.652-6.371a12.03 12.03 0 014.517-4.55c1.932-1.124 4.078-1.686 6.438-1.686 2.36 0 4.494.562 6.404 1.686a11.96 11.96 0 014.551 4.55c1.101 1.933 1.652 4.056 1.652 6.37 0 2.315-.55 4.439-1.652 6.372a12.206 12.206 0 01-4.55 4.584c-1.91 1.101-4.045 1.651-6.405 1.651zm0-4.314c1.483 0 2.843-.348 4.079-1.045a7.427 7.427 0 002.899-2.933c.719-1.258 1.078-2.696 1.078-4.314 0-1.618-.36-3.056-1.078-4.315a7.427 7.427 0 00-2.9-2.932c-1.235-.697-2.595-1.045-4.078-1.045s-2.843.348-4.079 1.045c-1.213.696-2.18 1.674-2.899 2.932-.696 1.259-1.044 2.697-1.044 4.315 0 1.618.348 3.056 1.044 4.314.72 1.259 1.686 2.236 2.9 2.933 1.235.697 2.595 1.045 4.078 1.045zm16.175-13.416h4.146v2.09h.27c.471-.741 1.157-1.36 2.055-1.854.9-.517 1.933-.775 3.102-.775 1.55 0 2.955.393 4.213 1.18 1.281.764 2.281 1.842 3 3.236.719 1.393 1.079 2.966 1.079 4.719 0 1.775-.36 3.36-1.079 4.753-.719 1.37-1.719 2.449-3 3.235-1.258.764-2.663 1.146-4.213 1.146-1.169 0-2.214-.247-3.135-.741-.9-.494-1.573-1.112-2.023-1.854h-.27l.27 2.427v6.91h-4.415V51.545zm8.797 13.652c.832 0 1.607-.214 2.326-.64a4.694 4.694 0 001.72-1.787c.426-.764.64-1.64.64-2.63 0-.988-.214-1.864-.64-2.629-.428-.764-1-1.348-1.72-1.752a4.476 4.476 0 00-2.326-.64c-.809 0-1.573.213-2.292.64-.719.404-1.292.989-1.719 1.752-.427.764-.64 1.64-.64 2.63 0 .989.213 1.865.64 2.629.427.764 1 1.36 1.72 1.786a4.41 4.41 0 002.291.64zm20.527 4.078c-1.708 0-3.247-.393-4.618-1.18a8.606 8.606 0 01-3.236-3.235c-.764-1.393-1.146-2.955-1.146-4.686 0-1.64.382-3.157 1.146-4.55a8.787 8.787 0 013.169-3.37c1.348-.832 2.854-1.248 4.516-1.248 1.776 0 3.304.382 4.585 1.146a7.365 7.365 0 012.899 3.135c.674 1.326 1.011 2.797 1.011 4.416 0 .516-.034 1.01-.101 1.483h-12.91c.224 1.37.764 2.415 1.618 3.134.876.697 1.921 1.045 3.134 1.045 1.012 0 1.877-.213 2.596-.64a4.952 4.952 0 001.753-1.786l3.573 1.752c-1.753 3.056-4.416 4.584-7.989 4.584zm4.079-11.224c-.045-.54-.248-1.068-.607-1.584-.337-.54-.82-.978-1.45-1.315-.606-.36-1.325-.54-2.157-.54-1.056 0-1.966.315-2.73.944-.742.607-1.281 1.439-1.618 2.495h8.562zm7.648-6.506h4.146v2.157h.27c.517-.831 1.247-1.483 2.191-1.954a6.51 6.51 0 013.067-.742c2.068 0 3.641.63 4.719 1.888 1.079 1.258 1.618 2.977 1.618 5.157v10.685h-4.415V58.59c0-1.101-.281-1.955-.843-2.562-.562-.606-1.348-.91-2.36-.91-1.191 0-2.157.46-2.898 1.382-.72.922-1.079 2.079-1.079 3.472v8.764h-4.416v-17.19zm28.067 17.73c-2.113 0-3.978-.595-5.596-1.786-1.618-1.191-2.753-2.876-3.404-5.056l4.28-1.685c.338 1.28.911 2.303 1.72 3.067.809.764 1.82 1.146 3.033 1.146 1.011 0 1.877-.247 2.596-.742.719-.516 1.078-1.224 1.078-2.123 0-.9-.348-1.63-1.045-2.191-.674-.584-1.887-1.203-3.64-1.854l-1.483-.54c-1.551-.539-2.877-1.36-3.978-2.46-1.101-1.124-1.651-2.528-1.651-4.214 0-1.258.325-2.404.977-3.438.652-1.034 1.573-1.843 2.764-2.427 1.191-.607 2.54-.91 4.045-.91 2.18 0 3.899.517 5.157 1.55 1.259 1.012 2.124 2.203 2.596 3.574l-4.011 1.685a3.874 3.874 0 00-1.315-1.854c-.607-.517-1.393-.775-2.359-.775-.989 0-1.809.236-2.461.708-.629.45-.944 1.045-.944 1.786 0 .72.303 1.337.91 1.854.607.494 1.607.978 3 1.45l1.517.505c2.09.72 3.685 1.674 4.787 2.865 1.123 1.169 1.685 2.708 1.685 4.618 0 1.573-.405 2.91-1.214 4.012a7.456 7.456 0 01-3.134 2.427 9.832 9.832 0 01-3.91.808zm11.961-24.674h4.416v6.102l-.27 3h.27c.494-.81 1.213-1.461 2.157-1.956a6.514 6.514 0 013.068-.741c2.09 0 3.685.63 4.786 1.888 1.124 1.236 1.686 2.955 1.686 5.157v10.685h-4.416V58.59c0-1.101-.303-1.955-.91-2.562-.585-.606-1.371-.91-2.36-.91-1.168 0-2.135.472-2.899 1.416-.741.944-1.112 2.101-1.112 3.472v8.73h-4.416V44.601zm22.772 5.057a2.756 2.756 0 01-2.022-.843 2.758 2.758 0 01-.843-2.023c0-.786.281-1.449.843-1.988a2.757 2.757 0 012.022-.843c.787 0 1.449.28 1.989.843.562.539.842 1.202.842 1.988 0 .787-.28 1.461-.842 2.023a2.65 2.65 0 01-1.989.843zm-2.225 1.887h4.416v17.191h-4.416v-17.19zm8.912 0h4.146v2.09h.27c.471-.741 1.157-1.36 2.056-1.854.899-.517 1.932-.775 3.101-.775 1.55 0 2.955.393 4.213 1.18 1.281.764 2.281 1.842 3 3.236.719 1.393 1.079 2.966 1.079 4.719 0 1.775-.36 3.36-1.079 4.753-.719 1.37-1.719 2.449-3 3.235-1.258.764-2.663 1.146-4.213 1.146-1.169 0-2.214-.247-3.135-.741-.899-.494-1.573-1.112-2.022-1.854h-.27l.27 2.427v6.91h-4.416V51.545zm8.798 13.652c.831 0 1.606-.214 2.325-.64a4.69 4.69 0 001.72-1.787c.426-.764.64-1.64.64-2.63 0-.988-.214-1.864-.64-2.629-.427-.764-1-1.348-1.72-1.752a4.475 4.475 0 00-2.325-.64c-.809 0-1.573.213-2.293.64-.719.404-1.292.989-1.719 1.752-.427.764-.64 1.64-.64 2.63 0 .989.213 1.865.64 2.629.427.764 1 1.36 1.719 1.786.72.427 1.484.64 2.293.64zM224.999 44.6h5.224l9.068 24.135h-5.023l-2.022-5.764h-9.236l-2.022 5.764h-5.023l9.034-24.135zm5.764 14.191l-2.124-6.067-.876-2.899h-.27l-.876 2.899-2.158 6.067h6.304zm11.787-14.19h4.55v24.134h-4.55V44.601z" fill="url(#paint0_linear_546_2292)"/><path d="M37.018 47.756a19.837 19.837 0 01-26.04 27.67l1.645-3.294A16.158 16.158 0 0033.83 49.597l3.188-1.841z" fill="url(#paint1_linear_546_2292)"/><path d="M2.658 67.594A19.838 19.838 0 0129.75 40.489l-1.84 3.19A16.156 16.156 0 005.846 65.752l-3.188 1.84z" fill="url(#paint2_linear_546_2292)"/><path d="M32.558 45.037a1.084 1.084 0 011.544-.891l4.762 2.25c.791.373.837 1.481.08 1.919l-5.197 3a1.084 1.084 0 01-1.622-1.028l.433-5.25z" fill="url(#paint3_linear_546_2292)"/><path d="M7.908 70.636a1.084 1.084 0 01-1.544.891l-4.762-2.25a1.084 1.084 0 01-.08-1.919l5.196-3a1.084 1.084 0 011.623 1.028l-.433 5.25z" fill="url(#paint4_linear_546_2292)"/><defs><linearGradient id="paint0_linear_546_2292" x1="286.443" y1="62.728" x2="137.668" y2="-160.427" gradientUnits="userSpaceOnUse"><stop stop-color="#0BA360"/><stop offset="1" stop-color="#0E7254"/></linearGradient><linearGradient id="paint1_linear_546_2292" x1="45.616" y1="65.178" x2="-23.283" y2="48.369" gradientUnits="userSpaceOnUse"><stop stop-color="#0BA360"/><stop offset="1" stop-color="#0E7254"/></linearGradient><linearGradient id="paint2_linear_546_2292" x1="35.907" y1="55.258" x2="-35.219" y2="37.27" gradientUnits="userSpaceOnUse"><stop stop-color="#0BA360"/><stop offset="1" stop-color="#0E7254"/></linearGradient><linearGradient id="paint3_linear_546_2292" x1="41.01" y1="48.386" x2="23.387" y2="43.962" gradientUnits="userSpaceOnUse"><stop stop-color="#0BA360"/><stop offset="1" stop-color="#0E7254"/></linearGradient><linearGradient id="paint4_linear_546_2292" x1="9.869" y1="68.556" x2="-7.753" y2="64.132" gradientUnits="userSpaceOnUse"><stop stop-color="#0BA360"/><stop offset="1" stop-color="#0E7254"/></linearGradient></defs></svg>
